X: 1505
T: Nikrîz Sirto
C: Refik Fersan
O: Turkey
F: http://compmusic.upf.edu/node/140
N: nikriz--sirto--nimsofyan----refik_fersan
N: makam= nikriz
N: form= sirto
N: usul= nimsofyan = 2/4
M: 2/4
L: 1/16
K: C _7/8B ^3/4f ^c 
Q: 1/4=84
%%MIDI tuningsystem comma53
G2zG G2d2  | c3/2d/ec d2g2  | g3/2^f/ag =f3/2e/gf  | \
w:   |   |   | 
e3/2d/=fe dcBA  | 
w:   | 
G2zG G2d2  | c3/2d/ec d2g2  | g3/2=f/ed f3/2e/dc  | \
w:   |   |   | 
B3/2A/G^F G4  | 
w:   | 
G2zd =c2=B2  | =B2=c2 ^c2d2  | G2zd cde^f  | \
w:   |   |   | 
ag=fe dcBA  | 
w:   | 
G2zd =c2=B2  | =B2=c2 ^c2d2  | ag=fe dcBA  | \
w:   |   |   | 
G2D2 G4  | d8  | 
w:   |   | 
=B8  | =c8  | A8  | G3/2^F/G2 =B3/2^A/B2  | \
w:   |   |   |   | 
=c3/2=B/c2 e3/2d/e2  | d3/2c/de ^f3/2e/f=b  | 
w:   |   | 
ag^fe d2ef  | g8  | e8  | ^f8  | d8  | =c3/2=B/c2 B3/2^A/B2  | \
w:   |   |   |   |   |   | 
A3/2^G/A2 e3/2^d/e2  | 
w:   | 
d8  | zg^fe d=c=BA  | G8  | D8  | =B8  | G8  | A3/2^G/A2 =c3/2=B/c2  | \
w:   |   |   |   |   |   |   | 
=B3/2^A/B2 =A3/2^G/A2  | 
w:   | 
d8  | d=BGB d4  | =c8  | A8  | =B8  | G8  | A3/2^G/A2 =c3/2=B/c2  | \
w:   |   |   |   |   |   |   | 
=B3/2^A/B2 A3B  | 
w:   | 
G2z=B dcdB  | G4 z4  | z2G^F G2e2  | eddc d4  | \
w:   |   |   |   | 
z2=c=B A2c2  | 
w:   | 
=c=BB^A B4  | z2=B2 G2B2  | =BAA^G A2ze  | \
w:   |   |   | 
dcBA B3/2A/G^F  | 
w:   | 
G^FGA =B=cd2  | z2G^F G2e2  | eddc d4  | \
w:   |   |   | 
z2=c=B A2c2  | 
w:   | 
=c=BB^A B4  | z2=B2 G2B2  | =BAA^G A2ze  | \
w:   |   |   | 
dcBA B3/2A/G^F  | 
w:   | 
G=BdB G4  | =B3/2^A/BG =c3/2B/c=A  | \
w:   |   | 
=B3/2=c/de d2g2  | ^f3/2g/af e3/2f/ge  | 
w:   |   | 
d3/2e/d=c =B3/2^A/B2  | =B3/2^A/BG =c3/2B/c=A  | \
w:   |   | 
=B3/2=c/de dcBA  | 
w:   | 
Gg^1/4fe d=c=BA  | G2DE/^F/ G2z2  | cd7  | \
w:   |   |   | 
cd3 cd2z  | 
w:   | 
(3c2d2e2 d3/2c/B2  | d3/2c/B2 {c}(3B2A2G2  | \
w:   |   | 
g2=fe eddc  | d3B G2d2  | 
w:   |   | 
cd7  | cd3 cd2z  | c2{e}dc B3/2A/B2  | ed2c B3/2A/Bg  | \
w:   |   |   |   | 
=f3/2e/dc B3/2A/G^F  | 
w:   | 
G2D2 G2z2  | z14  | D4G4G2G2G2  | D4G4G2G2G2  | \
w:   |  |   |   | 
G4d4d2c2d2  | e4{g}^f2e2d2c2d2  | 
w:   |   | 
c4d4c4B2  | c4{e}d4c4B2  | =f2e2d2c2B4A2  | \
w:   |   |   | 
G4A4G4z2  | c4{e}d4c4B2  | 
w:   |   | 
c4{e}d4c4B2  | c2d2e2=f2e2d2c2  | d4d4d4z2  | \
w:   |   |   | 
c4{e}d4c4B2  | c4{e}d4c4B2  | 
w:   |   | 
=f2e2d2c2B4A2  | G4G4G4z2  | D4G4G3^FG2  | \
w:   |   |   | 
G4=B4B3^AB2  | =B4d4c2d2e2  | 
w:   |   | 
d4d2=c2=B2^A2B2  | D4G4G2^F2G2  | G4=B4B2^A2B2  | \
w:   |   |   | 
c4d2c2B4A2  | 
w:   | 
G4G4G4z2  | g4g4^f3ed2  | g4g4^f3ed2  | \
w:   |   |   | 
e3g^f2e2d2e2c2  | 
w:   | 
d4e4^f2g2a2  | g4g4g3^fe2  | g3^fg2a2f3ed2  | \
w:   |   |   | 
e4{g}^f2e2d4c2  | 
w:   | 
d4d4d4z2  | c4{e}d4c4B2  | c4{e}d4c4B2  | \
w:   |   |   | 
c2d2e4d2c2B2  | A2B2c4B3AG2  | 
w:   |   | 
c3ed2e2c2d2B2  | c4{e}d4c4B2  | =f3ed2c2B4A2  | \
w:   |   |   | 
G4G4G4z2  | 
w:   | 
D4G4G3^FG2  | G4=B4B3^AB2  | =B4d4c3de2  | \
w:   |   |   | 
d3ed2=c2=B3^AB2  | 
w:   | 
D4G4G3^FG2  | G4=B4{c}B2^A2B2  | =f3ed2c2B3Ac2  | \
w:   |   |   | 
G4G4G4z2  | 
w:   | 
g4g4^f3ed2  | g4g4^f3ed2  | e3g^f2e2d2e2c2  | \
w:   |   |   | 
d4e4^f2g2a2  | 
w:   | 
g4g4g3^fe2  | g3^fg2a2f3ed2  | e4{g}^f2e2d4c2  | \
w:   |   |   | 
d4d4d4z2  | 
w:   | 
c4{e}d4c4B2  | c4{e}d4c4B2  | c2d2e4d2c2B2  | \
w:   |   |   | 
A2B2c4B3AG2  | c3ed2e2c2d2B2  | 
w:   |   | 
c4{e}d4c4B2  | =f3ed2c2B4A2  | G4G4G4z2  | \
w:   |   |   | 
D4G4G3^FG2  | G4=B4B3^AB2  | 
w:   |   | 
=B4d4c3de2  | d3ed2=c2=B3^AB2  | D4G4G3^FG2  | \
w:   |   |   | 
G4=B4{c}B2^A2B2  | 
w:   | 
=f3ed2c2B3Ac2  | G4G4G4z2  | z8  | z2G^F G2e2  | \
w:   |   |  |   | 
eddc d4  | 
w:   | 
z2=c=B A2c2  | =c=BB^A B4  | z2=B2 G2B2  | \
w:   |   |   | 
=BAA^G A2ze  | 
w:   | 
dcBA B3/2A/G^F  | G^FGA =B=cd2  | z2G^F G2e2  | \
w:   |   |   | 
eddc d4  | 
w:   | 
z2=c=B A2c2  | =c=BB^A B4  | z2=B2 G2B2  | \
w:   |   |   | 
=BAA^G A2ze  | 
w:   | 
dcBA B3/2A/G^F  | G=BdB G4  | |


